X:5934
T:Gan Ainm
R:Reel
S:Natalie McMaster
H:
N:
D:Solo Album #1
Z:Adrian Scahill
M:4/4
L:1/8
K:D
A,2EA, FA,EA,|A,2ED CA,A,G,|A,2EA, FA,EF|1 G2DC B,G,G,B,:|2 G2DC B,G,G,d||\
cA (3AAA eaed|cAeA cAAd|cA (3AAA agef|gddc BGGd|\
cA (3AAA eaed|cAeA cAAB|=c2dc (3BcB AG|GgdB GEDB,||
